.tmp/img/shape-splat.svg

<svg xmlns="http://www.w3.org/2000/svg" viewBox="0 0 1073 814"><path d="M511.2 624.3c4.7-5.7 9.9-11 15.4-15.5 19.5-16 48.4-39.4 62.7-45.8 14.3-6.8 27.6-7.4 34.7 2.4 7.2 9.9 18.4 35.4 26.4 31.1 8.1-4.3 6.2-8.3.7-24-5.6-15.7-8.1-30.7 4-30.4 11.5.3 25.5-.3 36.3-10.5 10.9-10.1 14.9-14.7 29.8-7 14.9 7.6 52.2 37.1 64 50.7 11.8 13.5 41.9 77.7 69.5 63.3 14.6-7.7-22.3-63.6-34.1-68.9-11.8-5.2-32.9-21.2-46.6-30.7-2.8-1.8-5.9-4.3-9.3-7.1 17.4 12.3 51.2 35.4 62.7 12.3 5.3-10.4-2.2-19.9-10.6-25.5-16.1-10.4-34.4-18.4-51.2-27.6-19.5-10.5-39.1-20.9-58.7-31.4-1.5-4.6-2.4-8.6-2.4-12.3 39.1-9.8 80.1-12.9 120.4-8 24.5 3.1 48.8 9 72 16.9 17.4 6.2 35.7 13 53.8 5.3 36.6-15.4 19.2-59.6-14.3-65.2-22.4-3.7-46.6 5.6-68.3 9.6-25.2 4.6-50.6 7.9-76.1 10.1-21.1 1.8-41.9 2.8-63 2.8 1.2-7.4-1.3-16.9-7.2-27.1-4.3-7.4-8.3-14.7-12.1-22.1 21.5 1.2 42.9 2.5 64.3 4 12.7.9 58.7 7.1 51.5-20-2.1-8.9-10.8-12.3-19.5-12.6-16.5-.6-34.2 3.1-50.3 4.6-18.3 1.9-36.3 3.7-54.7 5.3-.6-1.6-1.2-2.8-1.5-4.3-4.7-13-28.9-18.2-26.1-42.5.9-8.2.6-17.8 1.9-26.1 22.9-17.5 46.2-34.1 69.8-50.4 79.5-38.1 163.6-66.6 250.3-84.8 23.2-4.9 56.5-5.2 71.1-26.7 11.8-16.6 6.5-40.6-14.9-45.8-24.3-6.1-51.9 12-73 20.9-32.9 14.4-65.8 28.9-99 43.3-36.4 16-72.7 32-108.7 47.7-23.3 2.7-44.7 11.9-65.5 23-6.5-1.5-13.7-1.2-20.5-1.2-9 .3-21.1 2.1-25.5-8.6 14.6-12 34.2-20 50.3-26.8 20.5-8.3 52.2-20.5 45.1-48.5-2.5-9.5-10-16.6-20.2-17.5-12.4-.9-22.7 7.7-31.4 15.3-19.2 17.2-38.5 34.5-57.4 51.7-.9-1-1.9-1.9-2.5-3.1-5.9-8-6.8-19.1 3.1-27.7 9.9-8.6 19.9-51.3 10.6-45.7-9.4 5.2-23.9 16.2-28.3 23.6-4.3 7.4-5.6 16.6-19.2 13.8-13.7-2.7-25.8-4-32.6-15.9-.7-1.3-1.3-2.2-1.9-3.1 5.9-12 12.1-23.7 18-35.7 10.9-11.3 22.7-21.5 34.8-31.6 7.7-6.5 14.9-14.1 14.3-24.6-.4-8.6-5.9-16.9-14.9-18.7-10.9-1.9-18.4 6.7-23.3 14.7-10 16.6-18.7 34.1-27.4 51.9-8.6 9.3-16.4 19.1-23.9 29.2-9-1.5-17-2.7-18-13.2-1.2-12.6-4.3-21.8-13.9-22.4-9.3-.6-12.1 6.8-16.5 11.4-4.3 4.6-7.1 12.6-22.7 13.2-4 0-7.7.3-10.8.6-3.1-.3-6.5-.6-10.9-.6-15.5-.6-18.3-8.6-22.6-13.2-4.4-4.6-7.2-12-16.5-11.4-9.3.6-12.7 9.8-14 22.4-.9 10.5-9 11.4-17.7 12.9-3.1-12-4.9-25.5-8.4-30.4-6.8-8.9-20.1-14.7-31.3-10.4-11.5 4.6-14.6 16.9-10.3 27.6 3.2 8 10 13.5 14 21.2 3.1 5.9 4.1 12.3 3.1 18.8-6.5 4-14.9 5.2-23.9 7-13.6 2.8-14.9-6.4-19.2-13.8-4.4-7.4-19.3-18.4-28.3-23.7-9.3-5.2-18.6-2.4-22 11.1-3.4 13.5 22.3 26.4 32.6 35 9.9 8.6 9.3 19.7 3.1 27.7-5.6 7.7-11.2 8.9-14.3 21.8-38.5-4.9-75.1-21.2-108.4-41.8-24.8-15.3-48.1-32.9-71.4-49.8-14.6-10.7-37.5-34.1-57.7-30.1-17.1 3.4-20.8 23.7-12.4 36.9 5.6 8.3 14.9 12.9 23.9 17.2 13 6.2 26.1 11.7 39.1 17.5l81 36.3c14 6.1 28 12.6 41.6 18.7 5.9 2.8 12.1 5.2 18 8.3 1.6.6 2.8 1.6 4.4 2.5-5 .6-9.9 1.5-14.3 4.3-8.4 4.9-4 5.8-12.7 8.6-8.7 2.7-18.3 1.2-22.4 13.8-4 12.3 13.7 20.9 23.3 22.4 9.6 1.6 12.1.7 32.9 4 17.4 2.8 17.7 20.9 18.3 37.5-16.1 3.4-34.7.9-50-.6-26.7-3.1-53.4-5.8-80.4-8.9-28.5-3.1-57.4-6.5-86-9.5-16.4-1.9-40.6-6.5-49 12.6-6.5 15.3 6.5 26.7 21.1 27.6 11.8.9 23.9-1.5 35.7-2.4 14.3-1 28.6-1.6 42.8-1.6 28-.3 55.9 1.3 83.6 4.6 8.7 1 59.6 6.2 62.7 21.9-2.5 2.4-4.7 5.2-5.9 8.3-4.7 12.9-13.4 28.8-22.7 45.1-9.3 16-10.5 30.4-.9 37.8 9.3 7.7 15.8 4.3 17.7 15.1 1.8 10.7-8.1 31.9-20.8 48.2-12.8 16.3-35.1 36-48.8 45.8-13.6 9.8-34.7 25.5-46.5 30.7-11.8 5.3-28.6 18.2-37.6 32.3-9 14.4-11.2 28.9 3.4 36.6 27.6 14.4 36.6-15.4 43.2-28.9 6.8-13.5 14.6-20.9 26.4-34.4 11.8-13.6 48.7-43.1 63.9-50.7 14.9-7.7 19.3-3.1 29.8 7 10.9 10.2 24.5 10.8 36.3 10.5 12.1-.3 9.4 14.7 4.1 30.4-5.6 15.7-7.5 19.7.6 24 8.1 4.3 19.6-21.2 26.4-31.1 7.1-9.8 20.5-9.2 34.8-2.4.9.3 1.5.9 2.4 1.2 2.5 11.4 1.9 23-1.8 34.1-1 1.2-1.6 2.5-2.5 3.7-2.8 4.3-5 8.9-6.8 13.8-3.5 4.6-7.8 8.6-12.5 12.3-9.9 7.4-21.1 13.2-25.7 25.2-3.7 9.5-2.8 21.5 5.3 28.6 7.7 6.7 18.6 6.4 27.3 1.5 12.4-7.4 15.5-20.9 17.1-34.4.9-9.8 3.1-19 6.8-27.7 2.5-3.9 4.6-7.9 6.5-12.5 3.1-5.3 7.1-9.6 11.8-13.9 8.7.3 16.1 9.5 17.7 17.8 2.2 13-4.4 26.8-9.3 38.1-10 23.1-20.5 45.8-30.4 68.9-10 22.4-23.6 45.8-30.5 69.1-3.7 12.9 3.8 26.4 18.7 24.6 17.3-2.5 19.5-20 21.1-34.1 2.5-21.2 6.8-42.4 13.3-62.7 10.9-33.2 27.3-64.2 48.4-92.2.4.6.8 1.1 1.2 1.6.1-.6.2-1.1.4-1.7 24.2 13.9 51.4 14 81.5.3z" fill="#009DC9"/></svg>

<svg xmlns="http://www.w3.org/2000/svg"  viewBox="0 0 1073 814"><title>  Shape</title><desc>  Created with Sketch.</desc><g fill="none"><g fill="#009DC9"><path d="M511.2 624.3C515.9 618.6 521.1 613.3 526.6 608.8 546.1 592.8 575 569.4 589.3 563 603.6 556.2 616.9 555.6 624 565.4 631.2 575.3 642.4 600.8 650.4 596.5 658.5 592.2 656.6 588.2 651.1 572.5 645.5 556.8 643 541.8 655.1 542.1 666.6 542.4 680.6 541.8 691.4 531.6 702.3 521.5 706.3 516.9 721.2 524.6 736.1 532.2 773.4 561.7 785.2 575.3 797 588.8 827.1 653 854.7 638.6 869.3 630.9 832.4 575 820.6 569.7 808.8 564.5 787.7 548.5 774 539 771.2 537.2 768.1 534.7 764.7 531.9 782.1 544.2 815.9 567.3 827.4 544.2 832.7 533.8 825.2 524.3 816.8 518.7 800.7 508.3 782.4 500.3 765.6 491.1 746.1 480.6 726.5 470.2 706.9 459.7 705.4 455.1 704.5 451.1 704.5 447.4 743.6 437.6 784.6 434.5 824.9 439.4 849.4 442.5 873.7 448.4 896.9 456.3 914.3 462.5 932.6 469.3 950.7 461.6 987.3 446.2 969.9 402 936.4 396.4 914 392.7 889.8 402 868.1 406 842.9 410.6 817.5 413.9 792 416.1 770.9 417.9 750.1 418.9 729 418.9 730.2 411.5 727.7 402 721.8 391.8 717.5 384.4 713.5 377.1 709.7 369.7 731.2 370.9 752.6 372.2 774 373.7 786.7 374.6 832.7 380.8 825.5 353.7 823.4 344.8 814.7 341.4 806 341.1 789.5 340.5 771.8 344.2 755.7 345.7 737.4 347.6 719.4 349.4 701 351 700.4 349.4 699.8 348.2 699.5 346.7 694.8 333.7 670.6 328.5 673.4 304.2 674.3 296 674 286.4 675.3 278.1 698.2 260.6 721.5 244 745.1 227.7 824.6 189.6 908.7 161.1 995.4 142.9 1018.6 138 1051.9 137.7 1066.5 116.2 1078.3 99.6 1073 75.6 1051.6 70.4 1027.3 64.3 999.7 82.4 978.6 91.3 945.7 105.7 912.8 120.2 879.6 134.6 843.2 150.6 806.9 166.6 770.9 182.3 747.6 185 726.2 194.2 705.4 205.3 698.9 203.8 691.7 204.1 684.9 204.1 675.9 204.4 663.8 206.2 659.4 195.5 674 183.5 693.6 175.5 709.7 168.7 730.2 160.4 761.9 148.2 754.8 120.2 752.3 110.7 744.8 103.6 734.6 102.7 722.2 101.8 711.9 110.4 703.2 118 684 135.2 664.7 152.5 645.8 169.7 644.9 168.7 643.9 167.8 643.3 166.6 637.4 158.6 636.5 147.5 646.4 138.9 656.3 130.3 666.3 87.6 657 93.2 647.6 98.4 633.1 109.4 628.7 116.8 624.4 124.2 623.1 133.4 609.5 130.6 595.8 127.9 583.7 126.6 576.9 114.7 576.2 113.4 575.6 112.5 575 111.6 580.9 99.6 587.1 87.9 593 75.9 603.9 64.6 615.7 54.4 627.8 44.3 635.5 37.8 642.7 30.2 642.1 19.7 641.7 11.1 636.2 2.8 627.2 1 616.3-0.9 608.8 7.7 603.9 15.7 593.9 32.3 585.2 49.8 576.5 67.6 567.9 76.9 560.1 86.7 552.6 96.8 543.6 95.3 535.6 94.1 534.6 83.6 533.4 71 530.3 61.8 520.7 61.2 511.4 60.6 508.6 68 504.2 72.6 499.9 77.2 497.1 85.2 481.5 85.8 477.5 85.8 473.8 86.1 470.7 86.4 467.6 86.1 464.2 85.8 459.8 85.8 444.3 85.2 441.5 77.2 437.2 72.6 432.8 68 430 60.6 420.7 61.2 411.4 61.8 408 71 406.7 83.6 405.8 94.1 397.7 95 389 96.5 385.9 84.5 384.1 71 380.6 66.1 373.8 57.2 360.5 51.4 349.3 55.7 337.8 60.3 334.7 72.6 339 83.3 342.2 91.3 349 96.8 353 104.5 356.1 110.4 357.1 116.8 356.1 123.3 349.6 127.3 341.2 128.5 332.2 130.3 318.6 133.1 317.3 123.9 313 116.5 308.6 109.1 293.7 98.1 284.7 92.8 275.4 87.6 266.1 90.4 262.7 103.9 259.3 117.4 285 130.3 295.3 138.9 305.2 147.5 304.6 158.6 298.4 166.6 292.8 174.3 287.2 175.5 284.1 188.4 245.6 183.5 209 167.2 175.7 146.6 150.9 131.3 127.6 113.7 104.3 96.8 89.7 86.1 66.8 62.7 46.6 66.7 29.5 70.1 25.8 90.4 34.2 103.6 39.8 111.9 49.1 116.5 58.1 120.8 71.1 127 84.2 132.5 97.2 138.3L178.2 174.6C192.2 180.7 206.2 187.2 219.8 193.3 225.7 196.1 231.9 198.5 237.8 201.6 239.4 202.2 240.6 203.2 242.2 204.1 237.2 204.7 232.3 205.6 227.9 208.4 219.5 213.3 223.9 214.2 215.2 217 206.5 219.7 196.9 218.2 192.8 230.8 188.8 243.1 206.5 251.7 216.1 253.2 225.7 254.8 228.2 253.9 249 257.2 266.4 260 266.7 278.1 267.3 294.7 251.2 298.1 232.6 295.6 217.3 294.1 190.6 291 163.9 288.3 136.9 285.2 108.4 282.1 79.5 278.7 50.9 275.7 34.5 273.8 10.3 269.2 1.9 288.3 -4.6 303.6 8.4 315 23 315.9 34.8 316.8 46.9 314.4 58.7 313.5 73 312.5 87.3 311.9 101.5 311.9 129.5 311.6 157.4 313.2 185.1 316.5 193.8 317.5 244.7 322.7 247.8 338.4 245.3 340.8 243.1 343.6 241.9 346.7 237.2 359.6 228.5 375.5 219.2 391.8 209.9 407.8 208.7 422.2 218.3 429.6 227.6 437.3 234.1 433.9 236 444.7 237.8 455.4 227.9 476.6 215.2 492.9 202.4 509.2 180.1 528.9 166.4 538.7 152.8 548.5 131.7 564.2 119.9 569.4 108.1 574.7 91.3 587.6 82.3 601.7 73.3 616.1 71.1 630.6 85.7 638.3 113.3 652.7 122.3 622.9 128.9 609.4 135.7 595.9 143.5 588.5 155.3 575 167.1 561.4 204 531.9 219.2 524.3 234.1 516.6 238.5 521.2 249 531.3 259.9 541.5 273.5 542.1 285.3 541.8 297.4 541.5 294.7 556.5 289.4 572.2 283.8 587.9 281.9 591.9 290 596.2 298.1 600.5 309.6 575 316.4 565.1 323.5 555.3 336.9 555.9 351.2 562.7 352.1 563 352.7 563.6 353.6 563.9 356.1 575.3 355.5 586.9 351.8 598 350.8 599.2 350.2 600.5 349.3 601.7 346.5 606 344.3 610.6 342.5 615.5 339 620.1 334.7 624.1 330 627.8 320.1 635.2 308.9 641 304.3 653 300.6 662.5 301.5 674.5 309.6 681.6 317.3 688.3 328.2 688 336.9 683.1 349.3 675.7 352.4 662.2 354 648.7 354.9 638.9 357.1 629.7 360.8 621 363.3 617.1 365.4 613.1 367.3 608.5 370.4 603.2 374.4 598.9 379.1 594.6 387.8 594.9 395.2 604.1 396.8 612.4 399 625.4 392.4 639.2 387.5 650.5 377.5 673.6 367 696.3 357.1 719.4 347.1 741.8 333.5 765.2 326.6 788.5 322.9 801.4 330.4 814.9 345.3 813.1 362.6 810.6 364.8 793.1 366.4 779 368.9 757.8 373.2 736.6 379.7 716.3 390.6 683.1 407 652.1 428.1 624.1 428.5 624.7 428.9 625.2 429.3 625.7 429.4 625.1 429.5 624.6 429.7 624 453.9 637.9 481.1 638 511.2 624.3Z"/></g></g></svg>
